icons/PlayCircle.svg

<svg width="24" height="24" viewBox="0 0 24 24" fill="none" xmlns="http://www.w3.org/2000/svg">
<path fill-rule="evenodd" clip-rule="evenodd" d="M12,3.75c-4.55635,0 -8.25,3.69365 -8.25,8.25c0,4.5563 3.69365,8.25 8.25,8.25c4.5563,0 8.25,-3.6937 8.25,-8.25c0,-4.55635 -3.6937,-8.25 -8.25,-8.25zM2.25,12c0,-5.38478 4.36522,-9.75 9.75,-9.75c5.3848,0 9.75,4.36522 9.75,9.75c0,5.3848 -4.3652,9.75 -9.75,9.75c-5.38478,0 -9.75,-4.3652 -9.75,-9.75zM9,8.89478c0,-0.9779 1.0723,-1.57709 1.9051,-1.06457l5.046,3.10519c0.7932,0.4881 0.7932,1.6411 0,2.1292l-5.046,3.1052c-0.8328,0.5125 -1.9051,-0.0867 -1.9051,-1.0646z" fill="#002B51"/>
</svg>

<svg width="24" height="24" viewBox="0 0 24 24" fill="none" xmlns="http://www.w3.org/2000/svg">
<path fill-rule="evenodd" clip-rule="evenodd" d="M12 3.75C7.44365 3.75 3.75 7.44365 3.75 12C3.75 16.5563 7.44365 20.25 12 20.25C16.5563 20.25 20.25 16.5563 20.25 12C20.25 7.44365 16.5563 3.75 12 3.75ZM2.25 12C2.25 6.61522 6.61522 2.25 12 2.25C17.3848 2.25 21.75 6.61522 21.75 12C21.75 17.3848 17.3848 21.75 12 21.75C6.61522 21.75 2.25 17.3848 2.25 12ZM9 8.89478C9 7.91688 10.0723 7.31769 10.9051 7.83021L15.9511 10.9354C16.7443 11.4235 16.7443 12.5765 15.9511 13.0646L10.9051 16.1698C10.0723 16.6823 9 16.0831 9 15.1052V8.89478Z" fill="#002B51"/>
</svg>
